X:1
T:Old Orchard, 10.10.12.10
T:Ira Allan Sankey, 1903
T:Old Orchard, 10.10.12.10
T:Public Domain
C:Ira Allan Sankey, 1903
Z:Public Domain
%%score ( 1 2 ) ( 3 4 )
L:1/8
M:4/4
K:F
V:1 treble 
V:2 treble 
V:3 bass 
V:4 bass 
V:1
 [CF]4 [CF]2 [CF]2 | [DF]3 [DF] [DF]4 | [CF]4 [FG]2 [EG]2 | [FA]6 z2 | [Fc]4 [GB]2 (F_E) | %5
 [DA]3 [DG] [DG]4 | [EB]4 [EA]2 [EG]2 | F6 z2 | [Ec]4 [Fc]2 [GB]2 | [EB]3 [FA] [FA]4 | %10
 [^CA]4 [DA]2 [EG]2 | [^CG]3 [DF] [DF]4 | [Cc]4 [Fc]2 [GB]2 | [FA]3 [FB] [Fc]2 [Fd]2 | %14
 [FA]4 (F2 E2) | F8 |] %16
V:2
 x8 | x8 | x8 | x8 | x6 A2 | x8 | x8 | F6 x2 | x8 | x8 | x8 | x8 | x8 | x8 | x4 G4 | F8 |] %16
V:3
 [F,A,]4 [F,A,]2 [E,A,]2 | [D,A,]3 [D,A,] [D,A,]2 [B,,G,]2 | (A,2 G,A,) [C,B,]2 [C,C]2 | %3
 [F,C]6 z2 | [A,C]4 [E,C]2 F,2 | [B,,F,]3 [B,,G,] [B,,G,]4 | (G,2 D2) (C=B,) [C,_B,]2 | %7
 [F,A,]6 z2 | (C2 G,2) [D,C]2 [E,C]2 | [G,C]3 [F,C] [F,C]4 | (A,2 E,2) [=B,,A,]2 [^C,A,]2 | %11
 [E,A,]3 [D,A,] [D,A,]4 | [E,G,]2 [C,E,]2 [D,C]2 [E,C]2 | [F,C]3 [B,,D] (C_E)(DG,) | %14
 (C2 A,2) (C3 B,) | [F,A,]8 |] %16
V:4
 x8 | x8 | C,4 x4 | x8 | x6 F,2 | x8 | C,4 C,2 x2 | x8 | C,4 x4 | x8 | A,,4 x4 | x8 | x8 | %13
 x4 A,,2 B,,2 | C,4 C,4 | x8 |] %16

